src/scalable/apps/exodus.svg

<svg width="64" height="64" version="1" xmlns="http://www.w3.org/2000/svg">
 <g transform="matrix(1.35 0 0 1.35 -.4 -.4)">
  <rect x="4" y="4" width="40" height="40" rx="20" ry="20" fill="#333333"/>
  <path d="m38 17.818-12-7.818v4.3711l7.698 4.9706-0.90565 2.6583h-6.7924v4h6.7924l0.90565 2.6583-7.698 4.9706v4.371l12-7.793-1.9622-6.1945z" fill="#4483ff"/>
  <path d="m15.222 26h6.7531v-4h-6.7782l-0.87866-2.6583 7.6569-4.9706v-4.3711l-11.975 7.818 1.9582 6.1945-1.9582 6.1945 12 7.793v-4.371l-7.682-4.9706z" fill="#844aff"/>
 </g>
</svg>

<svg xmlns="http://www.w3.org/2000/svg" width="64" height="64" version="1"><g transform="matrix(1.35 0 0 1.35 -.4 -.4)"><rect width="40" height="40" x="4" y="4" fill="#333" rx="20" ry="20"/><path fill="#4483ff" d="M38 17.818 26 10v4.371l7.698 4.97L32.792 22H26v4h6.792l.906 2.658L26 33.628V38l12-7.793-1.962-6.195z"/><path fill="#844aff" d="M15.222 26h6.753v-4h-6.778l-.879-2.658 7.657-4.97V10L10 17.818l1.958 6.194L10 30.207 22 38v-4.371l-7.682-4.97z"/></g></svg>
